modules/map-icons/icons/night-club.svg

<svg version="1.2" baseProfile="tiny" xmlns="http://www.w3.org/2000/svg" width="50" height="50" viewBox="0 0 50 50" overflow="inherit"><path d="M47 9h-15s-1 8 1 16c.804 1.34 2.79 2.062 5 2.245v9.755h-.333l-3.667 3h11l-3.584-3h-.416v-9.828c2.12-.275 4.063-1.014 5-2.172 2-7 1-16 1-16zm-1 6h-13v-5h13v5zm-24.5 22h-5.5v-8.5l11-16.5h-26l11 16.5v8.5h-5.5c-.829 0-1.5.672-1.5 1.5s.671 1.5 1.5 1.5h15c.829 0 1.5-.672 1.5-1.5s-.671-1.5-1.5-1.5z"/></svg>

<svg version="1.2" baseProfile="tiny" xmlns="http://www.w3.org/2000/svg" width="50" height="50" viewBox="0 0 50 50" overflow="inherit"><path d="M47 9H32s-1 8 1 16c.804 1.34 2.79 2.062 5 2.245V37h-.333L34 40h11l-3.584-3H41v-9.828c2.12-.275 4.063-1.014 5-2.172 2-7 1-16 1-16zm-1 6H33v-5h13v5zM21.5 37H16v-8.5L27 12H1l11 16.5V37H6.5a1.5 1.5 0 1 0 0 3h15a1.5 1.5 0 1 0 0-3z"/></svg>
